src/components/Intro/img/eth.svg

<svg width="256" height="73" viewBox="0 0 256 73" fill="none" xmlns="http://www.w3.org/2000/svg">
<rect x="1.15234" y="1.47534" width="254" height="71" rx="15.5" stroke="white" stroke-opacity="0.12"/>
<rect x="14.6523" y="14.9753" width="44" height="44" rx="22" fill="#CFCFCF"/>
<g clip-path="url(#clip0_2001_13230)">
<path d="M36.7047 19.3752L36.4688 20.1772V43.447L36.7047 43.6825L47.5063 37.2977L36.7047 19.3752Z" fill="#343434"/>
<path d="M36.7059 19.3752L25.9043 37.2977L36.7059 43.6826V32.3881V19.3752Z" fill="#8C8C8C"/>
<path d="M36.7052 45.7278L36.5723 45.8898V54.1791L36.7052 54.5674L47.5133 39.3462L36.7052 45.7278Z" fill="#3C3C3B"/>
<path d="M36.7059 54.5672V45.7275L25.9043 39.3459L36.7059 54.5672Z" fill="#8C8C8C"/>
<path d="M36.7061 43.6825L47.5075 37.2978L36.7061 32.3882V43.6825Z" fill="#141414"/>
<path d="M25.9043 37.2978L36.7057 43.6826V32.3882L25.9043 37.2978Z" fill="#393939"/>
</g>
<path d="M70.087 33.9753V19.4299H79.5472V21.6387H72.7219V25.5876H79.0572V27.7964H72.7219V31.7665H79.604V33.9753H70.087ZM87.5692 23.0663V25.0549H85.4173V30.6941C85.4173 31.731 85.9357 31.9583 86.582 31.9583C86.9016 31.9583 87.1928 31.8944 87.3349 31.8589L87.7681 33.8688C87.4911 33.9611 86.9869 34.1032 86.2553 34.1245C84.3235 34.1813 82.832 33.1728 82.8462 31.1202V25.0549H81.2979V23.0663H82.8462V20.4526H85.4173V23.0663H87.5692ZM92.5249 27.5833V33.9753H89.9538V19.4299H92.468V24.9199H92.5959C93.1001 23.6841 94.1655 22.9242 95.8416 22.9242C98.1072 22.9242 99.5987 24.3944 99.5987 27.0293V33.9753H97.0277V27.427C97.0277 25.9569 96.2322 25.0975 94.8828 25.0975C93.505 25.0975 92.5249 26.0066 92.5249 27.5833ZM107.049 34.1884C103.761 34.1884 101.751 32.008 101.751 28.5847C101.751 25.2182 103.789 22.9242 106.914 22.9242C109.599 22.9242 111.9 24.6074 111.9 28.4356V29.2239H104.3C104.322 31.0918 105.423 32.1856 107.085 32.1856C108.192 32.1856 109.045 31.7026 109.393 30.7793L111.793 31.0492C111.339 32.9455 109.592 34.1884 107.049 34.1884ZM104.308 27.491H109.435C109.421 26.0066 108.427 24.927 106.95 24.927C105.415 24.927 104.386 26.0989 104.308 27.491ZM114.075 33.9753V23.0663H116.568V24.8844H116.681C117.079 23.6202 118.123 22.91 119.373 22.91C119.657 22.91 120.062 22.9384 120.297 22.981V25.3461C120.076 25.2751 119.537 25.1969 119.103 25.1969C117.69 25.1969 116.646 26.177 116.646 27.562V33.9753H114.075ZM126.385 34.1884C123.097 34.1884 121.087 32.008 121.087 28.5847C121.087 25.2182 123.125 22.9242 126.25 22.9242C128.935 22.9242 131.236 24.6074 131.236 28.4356V29.2239H123.636C123.658 31.0918 124.759 32.1856 126.42 32.1856C127.528 32.1856 128.381 31.7026 128.729 30.7793L131.129 31.0492C130.675 32.9455 128.928 34.1884 126.385 34.1884ZM123.643 27.491H128.771C128.757 26.0066 127.763 24.927 126.286 24.927C124.751 24.927 123.722 26.0989 123.643 27.491ZM140.364 29.3873V23.0663H142.935V33.9753H140.442V32.0364H140.328C139.831 33.258 138.681 34.1174 137.047 34.1174C134.902 34.1174 133.411 32.633 133.411 30.0123V23.0663H135.982V29.6145C135.982 30.9995 136.806 31.8731 138.042 31.8731C139.178 31.8731 140.364 31.0492 140.364 29.3873ZM145.579 33.9753V23.0663H148.036V24.9199H148.164C148.619 23.677 149.712 22.9242 151.175 22.9242C152.646 22.9242 153.704 23.6841 154.123 24.9199H154.237C154.719 23.7055 155.927 22.9242 157.511 22.9242C159.513 22.9242 160.92 24.2168 160.92 26.6529V33.9753H158.342V27.0506C158.342 25.7012 157.518 25.0904 156.481 25.0904C155.238 25.0904 154.506 25.9427 154.506 27.1714V33.9753H151.985V26.9441C151.985 25.8219 151.239 25.0904 150.153 25.0904C149.045 25.0904 148.15 25.9995 148.15 27.3418V33.9753H145.579Z" fill="white"/>
<path d="M79.5955 47.1231H77.8228C77.533 45.6174 76.2887 44.7822 74.8058 44.7822C72.8001 44.7822 71.3001 46.3333 71.3001 49.1572C71.3001 52.0038 72.8058 53.5322 74.8001 53.5322C76.2717 53.5322 77.5217 52.714 77.8228 51.2253L79.5955 51.231C79.2148 53.5322 77.3455 55.1344 74.7887 55.1344C71.766 55.1344 69.5558 52.8788 69.5558 49.1572C69.5558 45.4356 71.7773 43.1799 74.7887 43.1799C77.2489 43.1799 79.1978 44.6344 79.5955 47.1231ZM81.56 54.9753V46.2481H83.2021V47.6344H83.293C83.6112 46.6969 84.4862 46.1174 85.5089 46.1174C85.7248 46.1174 86.06 46.1344 86.2305 46.1572V47.7822C86.0941 47.7424 85.6964 47.6799 85.3441 47.6799C84.1396 47.6799 83.2589 48.5038 83.2589 49.6458V54.9753H81.56ZM89.0401 58.2481C88.5288 58.2481 88.0856 58.1515 87.881 58.0606L88.2901 56.6685C89.2219 56.9242 89.8299 56.8276 90.2617 55.6685L90.4719 55.089L87.2788 46.2481H89.0969L91.3072 53.0208H91.3981L93.6083 46.2481H95.4322L91.8356 56.1401C91.3299 57.5151 90.4435 58.2481 89.0401 58.2481ZM97.0288 58.2481V46.2481H98.6879V47.6628H98.8299C99.131 47.1231 99.7163 46.1344 101.336 46.1344C103.444 46.1344 105 47.7992 105 50.6288C105 53.4526 103.466 55.1458 101.353 55.1458C99.7617 55.1458 99.1367 54.1742 98.8299 53.6174H98.7276V58.2481H97.0288ZM98.6935 50.6117C98.6935 52.4469 99.5117 53.6969 100.972 53.6969C102.489 53.6969 103.284 52.3617 103.284 50.6117C103.284 48.8788 102.512 47.5776 100.972 47.5776C99.489 47.5776 98.6935 48.7878 98.6935 50.6117ZM110.978 46.2481V47.6117H109.188V52.4128C109.188 53.3958 109.682 53.5776 110.233 53.5776C110.506 53.5776 110.716 53.5265 110.83 53.5038L111.137 54.9072C110.938 54.981 110.574 55.0833 110.034 55.089C108.694 55.1174 107.483 54.3503 107.489 52.7651V47.6117H106.211V46.2481H107.489V44.1572H109.188V46.2481H110.978ZM116.439 55.1515C113.979 55.1515 112.371 53.3503 112.371 50.6515C112.371 47.9356 113.979 46.1344 116.439 46.1344C118.9 46.1344 120.507 47.9356 120.507 50.6515C120.507 53.3503 118.9 55.1515 116.439 55.1515ZM116.445 53.7253C118.042 53.7253 118.792 52.3219 118.792 50.6458C118.792 48.9753 118.042 47.5549 116.445 47.5549C114.837 47.5549 114.087 48.9753 114.087 50.6458C114.087 52.3219 114.837 53.7253 116.445 53.7253Z" fill="#8F8F8F"/>
<rect x="182.652" y="16.9753" width="51" height="20" rx="10" fill="#5CD16C" fill-opacity="0.2"/>
<path d="M192.074 29.5094V27.1998H189.769V26.0535H192.074V23.7481H193.221V26.0535H195.53V27.1998H193.221V29.5094H192.074ZM200.177 32.0663V31.1117C198.422 31.0009 197.339 30.0506 197.258 28.5634H198.579C198.647 29.4072 199.321 29.8589 200.177 29.9484V27.0506L199.764 26.9398C198.362 26.5606 197.493 25.8489 197.493 24.6344C197.493 23.2495 198.63 22.2907 200.177 22.1458V21.1572H200.876V22.1373C202.491 22.2438 203.595 23.2197 203.633 24.5407H202.363C202.278 23.8248 201.707 23.3731 200.876 23.2836V26.0151L201.243 26.1089C202.35 26.3816 203.752 26.991 203.752 28.5634C203.752 29.9569 202.708 30.9924 200.876 31.1074V32.0663H200.177ZM200.876 29.9441C201.805 29.8376 202.449 29.3091 202.449 28.5506C202.449 27.7964 201.771 27.4853 200.876 27.2424V29.9441ZM200.177 25.8276V23.2921C199.325 23.4072 198.805 23.9057 198.805 24.5577C198.801 25.3077 199.534 25.6444 200.177 25.8276ZM205.023 29.2708V28.2055L208.795 22.2481H210.418V28.1543H211.573V29.2708H210.418V30.9753H209.161V29.2708H205.023ZM209.17 28.1543V23.8163H209.102L206.404 28.0861V28.1543H209.17ZM215.939 31.0947C214.337 31.0947 213.131 30.089 213.08 28.6998H214.358C214.426 29.4498 215.095 29.9867 215.939 29.9867C216.94 29.9867 217.669 29.2282 217.669 28.1799C217.669 27.1145 216.919 26.339 215.884 26.3305C215.355 26.3305 214.767 26.5307 214.439 26.8248L213.233 26.6458L213.723 22.2481H218.521V23.3773H214.818L214.541 25.8191H214.592C214.933 25.4867 215.534 25.2395 216.182 25.2395C217.771 25.2395 218.947 26.4668 218.943 28.1543C218.947 29.8546 217.695 31.0947 215.939 31.0947ZM223.538 31.1202C221.518 31.116 220.338 29.4711 220.338 26.616C220.342 23.7736 221.535 22.1288 223.538 22.1288C225.537 22.1288 226.734 23.7779 226.734 26.616C226.734 29.4753 225.554 31.1202 223.538 31.1202ZM223.538 29.9824C224.714 29.9824 225.426 28.7978 225.426 26.616C225.426 24.4427 224.71 23.2452 223.538 23.2452C222.362 23.2452 221.65 24.4427 221.646 26.616C221.646 28.7978 222.358 29.9824 223.538 29.9824Z" fill="#44F28A"/>
<defs>
<clipPath id="clip0_2001_13230">
<rect width="21.6128" height="35.2" fill="white" transform="translate(25.9033 19.3752)"/>
</clipPath>
</defs>
</svg>

<svg xmlns="http://www.w3.org/2000/svg" width="256" height="73" fill="none" xmlns:v="https://vecta.io/nano"><rect x="1.152" y="1.475" width="254" height="71" rx="15.5" stroke="#fff" stroke-opacity=".12"/><rect x="14.652" y="14.975" width="44" height="44" rx="22" fill="#cfcfcf"/><g clip-path="url(#A)"><path d="M36.705 19.375l-.236.802v23.27l.236.235 10.802-6.385-10.802-17.922z" fill="#343434"/><path d="M36.706 19.375L25.904 37.298l10.802 6.385V32.388 19.375z" fill="#8c8c8c"/><path d="M36.705 45.728l-.133.162v8.289l.133.388 10.808-15.221-10.808 6.382z" fill="#3c3c3b"/><path d="M36.706 54.567v-8.84l-10.802-6.382 10.802 15.221z" fill="#8c8c8c"/><path d="M36.706 43.683l10.801-6.385-10.801-4.91v11.294z" fill="#141414"/><path d="M25.904 37.298l10.801 6.385V32.388l-10.801 4.91z" fill="#393939"/></g><path d="M70.087 33.975V19.43h9.46v2.209h-6.825v3.949h6.335v2.209h-6.335v3.97h6.882v2.209h-9.517zm17.482-10.909v1.989h-2.152v5.639c0 1.037.518 1.264 1.165 1.264.32 0 .611-.064.753-.099l.433 2.01c-.277.092-.781.234-1.513.256-1.932.057-3.423-.952-3.409-3.004v-6.065h-1.548v-1.989h1.548v-2.614h2.571v2.614h2.152zm4.956 4.517v6.392h-2.571V19.43h2.514v5.49h.128c.504-1.236 1.57-1.996 3.246-1.996 2.266 0 3.757 1.47 3.757 4.105v6.946h-2.571v-6.548c0-1.47-.795-2.329-2.145-2.329-1.378 0-2.358.909-2.358 2.486zm14.524 6.605c-3.288 0-5.298-2.18-5.298-5.604 0-3.367 2.038-5.661 5.163-5.661 2.685 0 4.986 1.683 4.986 5.511v.788h-7.6c.022 1.868 1.123 2.962 2.785 2.962 1.107 0 1.96-.483 2.308-1.406l2.4.27c-.454 1.896-2.201 3.139-4.744 3.139zm-2.741-6.697h5.127c-.014-1.484-1.008-2.564-2.485-2.564-1.535 0-2.564 1.172-2.642 2.564zm9.767 6.484V23.066h2.493v1.818h.113a2.72 2.72 0 0 1 2.692-1.974c.284 0 .689.028.924.071v2.365c-.221-.071-.76-.149-1.194-.149-1.413 0-2.457.98-2.457 2.365v6.413h-2.571zm12.31.213c-3.288 0-5.298-2.18-5.298-5.604 0-3.367 2.038-5.661 5.163-5.661 2.685 0 4.986 1.683 4.986 5.511v.788h-7.6c.022 1.868 1.123 2.962 2.784 2.962 1.108 0 1.961-.483 2.309-1.406l2.4.27c-.454 1.896-2.201 3.139-4.744 3.139zm-2.742-6.697h5.128c-.014-1.484-1.008-2.564-2.485-2.564-1.535 0-2.564 1.172-2.643 2.564zm16.721 1.896v-6.321h2.571v10.909h-2.493v-1.939h-.114c-.497 1.222-1.647 2.081-3.281 2.081-2.145 0-3.636-1.484-3.636-4.105v-6.946h2.571v6.548c0 1.385.824 2.259 2.06 2.259 1.136 0 2.322-.824 2.322-2.486zm5.215 4.588V23.066h2.457v1.854h.128c.455-1.243 1.548-1.996 3.011-1.996 1.471 0 2.529.76 2.948 1.996h.114c.482-1.214 1.69-1.996 3.274-1.996 2.002 0 3.409 1.293 3.409 3.729v7.322h-2.578v-6.925c0-1.349-.824-1.96-1.861-1.96-1.243 0-1.975.852-1.975 2.081v6.804h-2.521v-7.031c0-1.122-.746-1.854-1.832-1.854-1.108 0-2.003.909-2.003 2.251v6.633h-2.571z" fill="#fff"/><path d="M79.596 47.123h-1.773c-.29-1.506-1.534-2.341-3.017-2.341-2.006 0-3.506 1.551-3.506 4.375 0 2.847 1.506 4.375 3.5 4.375 1.472 0 2.722-.818 3.023-2.307l1.773.006c-.381 2.301-2.25 3.903-4.807 3.903-3.023 0-5.233-2.256-5.233-5.977s2.221-5.977 5.233-5.977c2.46 0 4.409 1.454 4.807 3.943zm1.965 7.852v-8.727h1.642v1.386h.091c.318-.937 1.193-1.517 2.216-1.517a6.88 6.88 0 0 1 .722.04v1.625c-.136-.04-.534-.102-.886-.102-1.204 0-2.085.824-2.085 1.966v5.329H81.56zm7.48 3.273c-.511 0-.954-.097-1.159-.187l.409-1.392c.932.256 1.54.159 1.972-1l.21-.58-3.193-8.841h1.818l2.21 6.773h.091l2.21-6.773h1.824l-3.597 9.892c-.506 1.375-1.392 2.108-2.796 2.108zm7.989 0v-12h1.659v1.415h.142c.301-.54.886-1.528 2.506-1.528 2.108 0 3.664 1.665 3.664 4.494 0 2.824-1.534 4.517-3.647 4.517-1.591 0-2.216-.972-2.523-1.528h-.102v4.631h-1.699zm1.665-7.636c0 1.835.818 3.085 2.278 3.085 1.517 0 2.312-1.335 2.312-3.085 0-1.733-.772-3.034-2.312-3.034-1.483 0-2.278 1.21-2.278 3.034zm12.284-4.364v1.364h-1.79v4.801c0 .983.494 1.165 1.045 1.165.273 0 .483-.051.597-.074l.307 1.403c-.199.074-.563.176-1.103.182-1.34.028-2.551-.739-2.545-2.324v-5.153h-1.278v-1.364h1.278v-2.091h1.699v2.091h1.79zm5.461 8.903c-2.46 0-4.068-1.801-4.068-4.5 0-2.716 1.608-4.517 4.068-4.517s4.068 1.801 4.068 4.517c0 2.699-1.607 4.5-4.068 4.5zm.006-1.426c1.597 0 2.347-1.403 2.347-3.079 0-1.671-.75-3.091-2.347-3.091-1.608 0-2.358 1.42-2.358 3.091 0 1.676.75 3.079 2.358 3.079z" fill="#8f8f8f"/><rect x="182.652" y="16.975" width="51" height="20" rx="10" fill="#5cd16c" fill-opacity=".2"/><path d="M192.074 29.509V27.2h-2.305v-1.146h2.305v-2.305h1.147v2.305h2.309V27.2h-2.309v2.31h-1.147zm8.103 2.557v-.955c-1.755-.111-2.838-1.061-2.919-2.548h1.321c.068.844.742 1.295 1.598 1.385v-2.898l-.413-.111c-1.402-.379-2.271-1.091-2.271-2.305 0-1.385 1.137-2.344 2.684-2.489v-.989h.699v.98c1.615.107 2.719 1.082 2.757 2.403h-1.27c-.085-.716-.656-1.168-1.487-1.257v2.732l.367.094c1.107.273 2.509.882 2.509 2.455 0 1.393-1.044 2.429-2.876 2.544v.959h-.699zm.699-2.122c.929-.107 1.573-.635 1.573-1.393s-.678-1.065-1.573-1.308v2.702zm-.699-4.116v-2.535c-.852.115-1.372.614-1.372 1.266-.004.75.729 1.087 1.372 1.27zm4.846 3.443v-1.065l3.772-5.957h1.623v5.906h1.155v1.117h-1.155v1.704h-1.257v-1.704h-4.138zm4.147-1.117v-4.338h-.068l-2.698 4.27v.068h2.766zm6.769 2.94c-1.602 0-2.808-1.006-2.859-2.395h1.278c.068.75.737 1.287 1.581 1.287 1.001 0 1.73-.758 1.73-1.807 0-1.065-.75-1.841-1.785-1.849-.529 0-1.117.2-1.445.494l-1.206-.179.49-4.398h4.798v1.129h-3.703l-.277 2.442h.051c.341-.332.942-.58 1.59-.58 1.589 0 2.765 1.227 2.761 2.915.004 1.7-1.248 2.94-3.004 2.94zm7.599.026c-2.02-.004-3.2-1.649-3.2-4.504.004-2.842 1.197-4.487 3.2-4.487s3.196 1.649 3.196 4.487c0 2.859-1.18 4.504-3.196 4.504zm0-1.138c1.176 0 1.888-1.185 1.888-3.366 0-2.173-.716-3.371-1.888-3.371s-1.888 1.197-1.892 3.371c0 2.182.712 3.366 1.892 3.366z" fill="#44f28a"/><defs><clipPath id="A"><path fill="#fff" transform="translate(25.903 19.375)" d="M0 0h21.613v35.2H0z"/></clipPath></defs></svg>
